exports/health-insurance-coverage-in-the-us_v2_850x600.svg

<svg xmlns="http://www.w3.org/2000/svg" version="1.1" style="background-color:#fff;-webkit-font-smoothing:antialiased" width="850" height="600" font-family="'Helvetica Neue',Helvetica,Arial,sans-serif" font-size="18" text-rendering="optimizeLegibility"><g class="ChartTab"><g class="HeaderView"><g opacity=".8" transform="matrix(.31 0 0 .31 770 15)"><a xmlns:xlink="http://www.w3.org/1999/xlink" xlink:href="https://ourworldindata.org" target="_blank"><g><path fill="#1B2543" d="M0 0h211.2v130.1H0z"/><path fill="#E63912" d="M0 112.2h211.2v17.9H0z"/><g><path fill="none" d="M1.2 12.3h210.2v99.2H1.2z"/><path fill="#FFF" d="M37.8 32.2c0 12.7-7.7 19.4-17.1 19.4-9.7 0-16.6-7.5-16.6-18.7 0-11.7 7.3-19.3 17.1-19.3 10.1.1 16.6 7.7 16.6 18.6zm-28.6.6c0 7.9 4.3 14.9 11.8 14.9 7.5 0 11.8-6.9 11.8-15.3 0-7.3-3.8-14.9-11.8-14.9-7.9 0-11.8 7.3-11.8 15.3zM62.7 43.8c0 2.7.1 5.1.2 7.2h-4.3l-.3-4.3h-.1c-1.3 2.1-4 4.9-8.8 4.9-4.2 0-9.1-2.3-9.1-11.6V24.6h4.8v14.6c0 5 1.5 8.4 5.9 8.4 3.2 0 5.5-2.2 6.3-4.4.3-.7.4-1.6.4-2.5V24.6h4.8v19.2zM67.3 32.8c0-3.1-.1-5.8-.2-8.2h4.2l.2 5.2h.2c1.2-3.5 4.1-5.8 7.3-5.8.5 0 .9.1 1.4.2v4.5c-.5-.1-1-.2-1.6-.2-3.4 0-5.8 2.6-6.5 6.2-.1.7-.2 1.4-.2 2.2V51h-4.8V32.8zM95.4 51L86 14.2h5l4.4 18.6c1.1 4.6 2.1 9.2 2.7 12.7h.1c.6-3.7 1.8-8 3-12.8l4.9-18.5h5l4.5 18.7c1 4.4 2 8.7 2.6 12.6h.1c.8-4 1.8-8.1 3-12.7l4.9-18.5h4.9L120.6 51h-5L111 31.9c-1.1-4.7-1.9-8.3-2.4-12h-.1c-.7 3.7-1.5 7.3-2.8 12L100.4 51h-5zM154.9 37.6c0 9.8-6.8 14-13.2 14-7.2 0-12.7-5.2-12.7-13.6 0-8.8 5.8-14 13.1-14 7.7 0 12.8 5.5 12.8 13.6zm-21 .3c0 5.8 3.3 10.1 8 10.1 4.6 0 8-4.3 8-10.3 0-4.5-2.2-10.1-7.9-10.1s-8.1 5.2-8.1 10.3zM158.2 32.8c0-3.1-.1-5.8-.2-8.2h4.2l.2 5.2h.2c1.2-3.5 4.1-5.8 7.3-5.8.5 0 .9.1 1.4.2v4.5c-.5-.1-1-.2-1.6-.2-3.4 0-5.8 2.6-6.5 6.2-.1.7-.2 1.4-.2 2.2V51h-4.8V32.8zM173.5 12.3h4.8V51h-4.8V12.3zM206.5 12.3v31.9c0 2.3.1 5 .2 6.8h-4.3l-.2-4.6h-.2c-1.5 2.9-4.7 5.2-9 5.2-6.4 0-11.3-5.4-11.3-13.4-.1-8.8 5.4-14.2 11.9-14.2 4 0 6.8 1.9 8 4h.1V12.3h4.8zm-4.8 23.1c0-.6-.1-1.4-.2-2a7 7 0 00-6.9-5.6c-5 0-7.9 4.4-7.9 10.2 0 5.3 2.6 9.8 7.8 9.8 3.2 0 6.2-2.1 7.1-5.7.2-.7.2-1.3.2-2.1v-4.6zM42.8 64c.1 1.6-1.1 2.9-3.1 2.9-1.7 0-2.9-1.3-2.9-2.9 0-1.7 1.3-3 3-3 1.9 0 3 1.3 3 3zm-5.4 33.8V71.4h4.8v26.4h-4.8zM47.5 78.6c0-2.7-.1-5-.2-7.1h4.3l.3 4.4h.1c1.3-2.5 4.4-5 8.8-5 3.7 0 9.4 2.2 9.4 11.2v15.8h-4.8V82.6c0-4.3-1.6-7.8-6.1-7.8-3.2 0-5.6 2.2-6.5 4.9-.2.6-.3 1.4-.3 2.2v15.9h-4.8V78.6zM84 61.6c2.9-.4 6.3-.8 10.1-.8 6.8 0 11.7 1.6 14.9 4.6 3.3 3 5.2 7.3 5.2 13.2 0 6-1.9 10.9-5.3 14.3-3.4 3.4-9.1 5.3-16.3 5.3-3.4 0-6.2-.2-8.6-.4V61.6zm4.8 32.5c1.2.2 3 .3 4.8.3 10.2 0 15.7-5.7 15.7-15.6.1-8.7-4.9-14.2-14.9-14.2-2.5 0-4.3.2-5.6.5v29zM132.1 97.8l-.4-3.3h-.2a9.79 9.79 0 01-8.1 3.9c-5.4 0-8.1-3.8-8.1-7.6 0-6.4 5.7-9.9 15.9-9.8v-.5c0-2.2-.6-6.1-6-6.1-2.5 0-5 .8-6.9 2l-1.1-3.2c2.2-1.4 5.4-2.3 8.7-2.3 8.1 0 10.1 5.5 10.1 10.8v9.9c0 2.3.1 4.5.4 6.3h-4.3zm-.7-13.4c-5.3-.1-11.2.8-11.2 5.9 0 3.1 2.1 4.6 4.5 4.6 3.4 0 5.6-2.2 6.4-4.4.2-.5.3-1 .3-1.5v-4.6zM146.6 63.9v7.6h6.9v3.7h-6.9v14.2c0 3.3.9 5.1 3.6 5.1 1.3 0 2.2-.2 2.8-.3l.2 3.6c-.9.4-2.4.7-4.3.7-2.2 0-4-.7-5.2-2-1.4-1.4-1.9-3.8-1.9-6.9V75.1h-4.1v-3.7h4.1v-6.3l4.8-1.2zM171.4 97.8l-.4-3.3h-.2a9.79 9.79 0 01-8.1 3.9c-5.4 0-8.1-3.8-8.1-7.6 0-6.4 5.7-9.9 15.9-9.8v-.5c0-2.2-.6-6.1-6-6.1-2.5 0-5 .8-6.9 2l-1.1-3.2c2.2-1.4 5.4-2.3 8.7-2.3 8.1 0 10.1 5.5 10.1 10.8v9.9c0 2.3.1 4.5.4 6.3h-4.3zm-.7-13.4c-5.3-.1-11.2.8-11.2 5.9 0 3.1 2.1 4.6 4.5 4.6 3.4 0 5.6-2.2 6.4-4.4.2-.5.3-1 .3-1.5v-4.6z"/></g></g></a></g><a href="https://ourworldindata.org/grapher/health-insurance-coverage-in-the-us" target="_blank"><text font-size="27" x="15" y="36.6" fill="#555"><tspan x="15" y="36.6">Health Insurance Coverage in the U.S.</tspan></text></a><text font-size="14.4" x="15" y="55.5" fill="#666"><tspan x="15" y="55.52">Health insurance coverage in the U.S. by type of plan (NB. Insurance plans are not mutually exclusive)</tspan></text></g><g class="LineChart"><defs><clipPath id="a"><path d="M42.56 0h830v956.2h-830z"/></clipPath></defs><g class="AxisBoxView"><g class="HorizontalAxis" fill="#666" text-anchor="middle" font-size="16.2"><text x="52.6" y="556.5">1987</text><text x="108.6" y="556.5">1990</text><text x="202" y="556.5">1995</text><text x="295.4" y="556.5">2000</text><text x="388.8" y="556.5">2005</text><text x="482.3" y="556.5">2010</text><text x="557" y="556.5">2014</text></g><g class="VerticalAxis" fill="#666" dominant-baseline="middle" text-anchor="end" font-size="16.2"><text x="47.56" y="535.3">0%</text><text x="47.56" y="433.3">20%</text><text x="47.56" y="331.3">40%</text><text x="47.56" y="229.3">60%</text><text x="47.56" y="127.4">80%</text></g><g class="AxisGridLines"><path stroke="#ccc" d="M52.56 535.3h504.43"/><path stroke="#ddd" stroke-dasharray="3,2" d="M52.56 433.3h504.43M52.56 331.3h504.43M52.56 229.3h504.43M52.56 127.4h504.43"/></g><g class="AxisGridLines" stroke="#ddd" stroke-dasharray="3,2"><path d="M108.6 535.3V78.4M202 535.3V78.4M295.4 535.3V78.4M388.8 535.3V78.4M482.3 535.3V78.4"/></g></g><g clip-path="url(#a)"><g class="HeightedLegend clickable"><g class="legendMark"><path fill="#34983f" d="M566.99 77.15h10v2.5h-10z"/><text font-size="14.4" x="582" y="75" fill="#333"><tspan x="581.99" y="74.97">Health Insurance Coverage US, Any</tspan><tspan x="581.99" y="90.81">Plan</tspan></text></g><g class="legendMark"><path fill="#ca2628" d="M566.99 197.45h10v2.5h-10z"/><text font-size="14.4" x="582" y="195.3" fill="#333"><tspan x="581.99" y="195.27">Health Insurance Coverage US, Private</tspan><tspan x="581.99" y="211.11">Plan</tspan></text></g><g class="legendMark"><path fill="#3360a9" d="M566.99 347.95h10v2.5h-10z"/><text font-size="14.4" x="582" y="345.8" fill="#333"><tspan x="581.99" y="345.77">Health Insurance Coverage US, Govt</tspan><tspan x="581.99" y="361.61">Plan</tspan></text></g></g><g class="Lines"><g class="key-United-States_0"><path stroke="#3360a9" stroke-linecap="round" d="M53 417h37l19-7 18-4 19-2 19-3 18-2 19 2 19 2 18 6 19 2 19-1 18-1 19-3 19-2 19-4 18-4h19l19 2 18-4 19-7 19-8 18-3 19-5 19-2 18-10 19-10" fill="none" stroke-width="1.5"/><g fill="#3360a9"><circle cx="53" cy="417" r="2"/><circle cx="71" cy="417" r="2"/><circle cx="90" cy="417" r="2"/><circle cx="109" cy="410" r="2"/><circle cx="127" cy="406" r="2"/><circle cx="146" cy="404" r="2"/><circle cx="165" cy="401" r="2"/><circle cx="183" cy="399" r="2"/><circle cx="202" cy="401" r="2"/><circle cx="221" cy="403" r="2"/><circle cx="239" cy="409" r="2"/><circle cx="258" cy="411" r="2"/><circle cx="277" cy="410" r="2"/><circle cx="295" cy="409" r="2"/><circle cx="314" cy="406" r="2"/><circle cx="333" cy="404" r="2"/><circle cx="352" cy="400" r="2"/><circle cx="370" cy="396" r="2"/><circle cx="389" cy="396" r="2"/><circle cx="408" cy="398" r="2"/><circle cx="426" cy="394" r="2"/><circle cx="445" cy="387" r="2"/><circle cx="464" cy="379" r="2"/><circle cx="482" cy="376" r="2"/><circle cx="501" cy="371" r="2"/><circle cx="520" cy="369" r="2"/><circle cx="538" cy="359" r="2"/><circle cx="557" cy="349" r="2"/></g></g><g class="key-United-States_1"><path stroke="#ca2628" stroke-linecap="round" d="M53 150l18 4 19 1 19 7 18 6 19 7 19 2h37l19-2h18l19-1 19-8 18-1 19 6 19 6 19 5 18 1 19 3 19 3 18 2 19 4 19 11 18 3 19 1h19l18-2 19-9" fill="none" stroke-width="1.5"/><g fill="#ca2628"><circle cx="53" cy="150" r="2"/><circle cx="71" cy="154" r="2"/><circle cx="90" cy="155" r="2"/><circle cx="109" cy="162" r="2"/><circle cx="127" cy="168" r="2"/><circle cx="146" cy="175" r="2"/><circle cx="165" cy="177" r="2"/><circle cx="183" cy="177" r="2"/><circle cx="202" cy="177" r="2"/><circle cx="221" cy="175" r="2"/><circle cx="239" cy="175" r="2"/><circle cx="258" cy="174" r="2"/><circle cx="277" cy="166" r="2"/><circle cx="295" cy="165" r="2"/><circle cx="314" cy="171" r="2"/><circle cx="333" cy="177" r="2"/><circle cx="352" cy="182" r="2"/><circle cx="370" cy="183" r="2"/><circle cx="389" cy="186" r="2"/><circle cx="408" cy="189" r="2"/><circle cx="426" cy="191" r="2"/><circle cx="445" cy="195" r="2"/><circle cx="464" cy="206" r="2"/><circle cx="482" cy="209" r="2"/><circle cx="501" cy="210" r="2"/><circle cx="520" cy="210" r="2"/><circle cx="538" cy="208" r="2"/><circle cx="557" cy="199" r="2"/></g></g><g class="key-United-States_2"><path stroke="#34983f" stroke-linecap="round" d="M53 91l18 3 19 1 19 1 18 1 19 5 19 1h18l19 1h19l18 1 19 1 19-9 18-2 19 2 19 3 19 2 18-1 19 2 19 3 18-3 19 1 19 4 18 1 19-4 19-1 18-11 19-15" fill="none" stroke-width="1.5"/><g fill="#34983f"><circle cx="53" cy="91" r="2"/><circle cx="71" cy="94" r="2"/><circle cx="90" cy="95" r="2"/><circle cx="109" cy="96" r="2"/><circle cx="127" cy="97" r="2"/><circle cx="146" cy="102" r="2"/><circle cx="165" cy="103" r="2"/><circle cx="183" cy="103" r="2"/><circle cx="202" cy="104" r="2"/><circle cx="221" cy="104" r="2"/><circle cx="239" cy="105" r="2"/><circle cx="258" cy="106" r="2"/><circle cx="277" cy="97" r="2"/><circle cx="295" cy="95" r="2"/><circle cx="314" cy="97" r="2"/><circle cx="333" cy="100" r="2"/><circle cx="352" cy="102" r="2"/><circle cx="370" cy="101" r="2"/><circle cx="389" cy="103" r="2"/><circle cx="408" cy="106" r="2"/><circle cx="426" cy="103" r="2"/><circle cx="445" cy="104" r="2"/><circle cx="464" cy="108" r="2"/><circle cx="482" cy="109" r="2"/><circle cx="501" cy="105" r="2"/><circle cx="520" cy="104" r="2"/><circle cx="538" cy="93" r="2"/><circle cx="557" cy="78" r="2"/></g></g></g></g></g><g class="SourcesFooter" fill="#777"><g class="clickable" fill="#777"><text font-size="12.6" x="15" y="581.6"><tspan x="15" y="581.58">Source: US Current Population Survey (2014)</tspan></text></g><text font-size="12.6" x="528.1" y="581.6"><tspan x="528.06" y="581.58"><a target="_blank" href="https://ourworldindata.org/financing-healthcare/" fill="#777">OurWorldInData.org/financing-healthcare/</a> • <a href="http://creativecommons.org/licenses/by-sa/4.0/deed.en_US" target="_blank" fill="#777">CC BY-SA</a></tspan></text></g></g></svg>

<svg xmlns="http://www.w3.org/2000/svg" version="1.1" style="font-family: 'Helvetica Neue', Helvetica, Arial, sans-serif; font-size: 18px; background-color: white; text-rendering: optimizeLegibility; -webkit-font-smoothing: antialiased;" width="850" height="600"><g class="ChartTab"><g class="HeaderView"><g opacity="0.8" transform="translate(770, 15) scale(0.31)"><a xmlns:xlink="http://www.w3.org/1999/xlink" xlink:href="https://ourworldindata.org" target="_blank"><g><rect x="0" y="0" fill="#1B2543" width="211.2" height="130.1"/><rect x="0" y="112.2" fill="#E63912" width="211.2" height="17.9"/><g><rect x="1.2" y="12.3" fill="none" width="210.2" height="99.2"/><path fill="#FFFFFF" d="M37.8,32.2c0,12.7-7.7,19.4-17.1,19.4c-9.7,0-16.6-7.5-16.6-18.7c0-11.7,7.3-19.3,17.1-19.3 C31.3,13.7,37.8,21.3,37.8,32.2z M9.2,32.8c0,7.9,4.3,14.9,11.8,14.9c7.5,0,11.8-6.9,11.8-15.3c0-7.3-3.8-14.9-11.8-14.9 C13.1,17.5,9.2,24.8,9.2,32.8z"/><path fill="#FFFFFF" d="M62.7,43.8c0,2.7,0.1,5.1,0.2,7.2h-4.3l-0.3-4.3h-0.1c-1.3,2.1-4,4.9-8.8,4.9c-4.2,0-9.1-2.3-9.1-11.6 V24.6h4.8v14.6c0,5,1.5,8.4,5.9,8.4c3.2,0,5.5-2.2,6.3-4.4c0.3-0.7,0.4-1.6,0.4-2.5V24.6h4.8V43.8z"/><path fill="#FFFFFF" d="M67.3,32.8c0-3.1-0.1-5.8-0.2-8.2h4.2l0.2,5.2h0.2c1.2-3.5,4.1-5.8,7.3-5.8c0.5,0,0.9,0.1,1.4,0.2v4.5 c-0.5-0.1-1-0.2-1.6-0.2c-3.4,0-5.8,2.6-6.5,6.2c-0.1,0.7-0.2,1.4-0.2,2.2V51h-4.8V32.8z"/><path fill="#FFFFFF" d="M95.4,51l-9.4-36.8h5l4.4,18.6c1.1,4.6,2.1,9.2,2.7,12.7h0.1c0.6-3.7,1.8-8,3-12.8l4.9-18.5h5l4.5,18.7 c1,4.4,2,8.7,2.6,12.6h0.1c0.8-4,1.8-8.1,3-12.7l4.9-18.5h4.9L120.6,51h-5L111,31.9c-1.1-4.7-1.9-8.3-2.4-12h-0.1 c-0.7,3.7-1.5,7.3-2.8,12L100.4,51H95.4z"/><path fill="#FFFFFF" d="M154.9,37.6c0,9.8-6.8,14-13.2,14c-7.2,0-12.7-5.2-12.7-13.6c0-8.8,5.8-14,13.1-14 C149.8,24,154.9,29.5,154.9,37.6z M133.9,37.9c0,5.8,3.3,10.1,8,10.1c4.6,0,8-4.3,8-10.3c0-4.5-2.2-10.1-7.9-10.1 C136.3,27.6,133.9,32.8,133.9,37.9z"/><path fill="#FFFFFF" d="M158.2,32.8c0-3.1-0.1-5.8-0.2-8.2h4.2l0.2,5.2h0.2c1.2-3.5,4.1-5.8,7.3-5.8c0.5,0,0.9,0.1,1.4,0.2v4.5 c-0.5-0.1-1-0.2-1.6-0.2c-3.4,0-5.8,2.6-6.5,6.2c-0.1,0.7-0.2,1.4-0.2,2.2V51h-4.8V32.8z"/><path fill="#FFFFFF" d="M173.5,12.3h4.8V51h-4.8V12.3z"/><path fill="#FFFFFF" d="M206.5,12.3v31.9c0,2.3,0.1,5,0.2,6.8h-4.3l-0.2-4.6H202c-1.5,2.9-4.7,5.2-9,5.2 c-6.4,0-11.3-5.4-11.3-13.4c-0.1-8.8,5.4-14.2,11.9-14.2c4,0,6.8,1.9,8,4h0.1V12.3H206.5z M201.7,35.4c0-0.6-0.1-1.4-0.2-2 c-0.7-3.1-3.3-5.6-6.9-5.6c-5,0-7.9,4.4-7.9,10.2c0,5.3,2.6,9.8,7.8,9.8c3.2,0,6.2-2.1,7.1-5.7c0.2-0.7,0.2-1.3,0.2-2.1V35.4z"/><path fill="#FFFFFF" d="M42.8,64c0.1,1.6-1.1,2.9-3.1,2.9c-1.7,0-2.9-1.3-2.9-2.9c0-1.7,1.3-3,3-3C41.7,61,42.8,62.3,42.8,64z M37.4,97.8V71.4h4.8v26.4H37.4z"/><path fill="#FFFFFF" d="M47.5,78.6c0-2.7-0.1-5-0.2-7.1h4.3l0.3,4.4h0.1c1.3-2.5,4.4-5,8.8-5c3.7,0,9.4,2.2,9.4,11.2v15.8h-4.8 V82.6c0-4.3-1.6-7.8-6.1-7.8c-3.2,0-5.6,2.2-6.5,4.9c-0.2,0.6-0.3,1.4-0.3,2.2v15.9h-4.8V78.6z"/><path fill="#FFFFFF" d="M84,61.6c2.9-0.4,6.3-0.8,10.1-0.8c6.8,0,11.7,1.6,14.9,4.6c3.3,3,5.2,7.3,5.2,13.2c0,6-1.9,10.9-5.3,14.3 c-3.4,3.4-9.1,5.3-16.3,5.3c-3.4,0-6.2-0.2-8.6-0.4V61.6z M88.8,94.1c1.2,0.2,3,0.3,4.8,0.3c10.2,0,15.7-5.7,15.7-15.6 c0.1-8.7-4.9-14.2-14.9-14.2c-2.5,0-4.3,0.2-5.6,0.5V94.1z"/><path fill="#FFFFFF" d="M132.1,97.8l-0.4-3.3h-0.2c-1.5,2.1-4.3,3.9-8.1,3.9c-5.4,0-8.1-3.8-8.1-7.6c0-6.4,5.7-9.9,15.9-9.8v-0.5 c0-2.2-0.6-6.1-6-6.1c-2.5,0-5,0.8-6.9,2l-1.1-3.2c2.2-1.4,5.4-2.3,8.7-2.3c8.1,0,10.1,5.5,10.1,10.8v9.9c0,2.3,0.1,4.5,0.4,6.3 H132.1z M131.4,84.4c-5.3-0.1-11.2,0.8-11.2,5.9c0,3.1,2.1,4.6,4.5,4.6c3.4,0,5.6-2.2,6.4-4.4c0.2-0.5,0.3-1,0.3-1.5V84.4z"/><path fill="#FFFFFF" d="M146.6,63.9v7.6h6.9v3.7h-6.9v14.2c0,3.3,0.9,5.1,3.6,5.1c1.3,0,2.2-0.2,2.8-0.3l0.2,3.6 c-0.9,0.4-2.4,0.7-4.3,0.7c-2.2,0-4-0.7-5.2-2c-1.4-1.4-1.9-3.8-1.9-6.9V75.1h-4.1v-3.7h4.1v-6.3L146.6,63.9z"/><path fill="#FFFFFF" d="M171.4,97.8l-0.4-3.3h-0.2c-1.5,2.1-4.3,3.9-8.1,3.9c-5.4,0-8.1-3.8-8.1-7.6c0-6.4,5.7-9.9,15.9-9.8v-0.5 c0-2.2-0.6-6.1-6-6.1c-2.5,0-5,0.8-6.9,2l-1.1-3.2c2.2-1.4,5.4-2.3,8.7-2.3c8.1,0,10.1,5.5,10.1,10.8v9.9c0,2.3,0.1,4.5,0.4,6.3 H171.4z M170.7,84.4c-5.3-0.1-11.2,0.8-11.2,5.9c0,3.1,2.1,4.6,4.5,4.6c3.4,0,5.6-2.2,6.4-4.4c0.2-0.5,0.3-1,0.3-1.5V84.4z"/></g></g></a></g><a href="https://ourworldindata.org/grapher/health-insurance-coverage-in-the-us" target="_blank"><text font-size="27.00" x="15.0" y="36.6" fill="#555"><tspan x="15" y="36.6">Health Insurance Coverage in the U.S.</tspan></text></a><text font-size="14.40" x="15.0" y="55.5" fill="#666"><tspan x="15" y="55.519999999999996">Health insurance coverage in the U.S. by type of plan (NB. Insurance plans are not mutually exclusive)</tspan></text></g><g class="LineChart"><defs><clipPath id="boundsClip-3"><rect x="42.562" y="0" width="830" height="956.2"></rect></clipPath></defs><g class="AxisBoxView"><g class="HorizontalAxis"><text x="52.6" y="556.5" fill="#666" text-anchor="middle" font-size="16.2">1987</text><text x="108.6" y="556.5" fill="#666" text-anchor="middle" font-size="16.2">1990</text><text x="202" y="556.5" fill="#666" text-anchor="middle" font-size="16.2">1995</text><text x="295.4" y="556.5" fill="#666" text-anchor="middle" font-size="16.2">2000</text><text x="388.8" y="556.5" fill="#666" text-anchor="middle" font-size="16.2">2005</text><text x="482.3" y="556.5" fill="#666" text-anchor="middle" font-size="16.2">2010</text><text x="557" y="556.5" fill="#666" text-anchor="middle" font-size="16.2">2014</text></g><g class="VerticalAxis"><text x="47.56" y="535.3" fill="#666" dominant-baseline="middle" text-anchor="end" font-size="16.2">0%</text><text x="47.56" y="433.3" fill="#666" dominant-baseline="middle" text-anchor="end" font-size="16.2">20%</text><text x="47.56" y="331.3" fill="#666" dominant-baseline="middle" text-anchor="end" font-size="16.2">40%</text><text x="47.56" y="229.3" fill="#666" dominant-baseline="middle" text-anchor="end" font-size="16.2">60%</text><text x="47.56" y="127.4" fill="#666" dominant-baseline="middle" text-anchor="end" font-size="16.2">80%</text></g><g class="AxisGridLines"><line x1="52.56" y1="535.3" x2="556.99" y2="535.3" stroke="#ccc"></line><line x1="52.56" y1="433.3" x2="556.99" y2="433.3" stroke="#ddd" stroke-dasharray="3,2"></line><line x1="52.56" y1="331.3" x2="556.99" y2="331.3" stroke="#ddd" stroke-dasharray="3,2"></line><line x1="52.56" y1="229.3" x2="556.99" y2="229.3" stroke="#ddd" stroke-dasharray="3,2"></line><line x1="52.56" y1="127.4" x2="556.99" y2="127.4" stroke="#ddd" stroke-dasharray="3,2"></line></g><g class="AxisGridLines"><line x1="108.6" y1="535.30" x2="108.6" y2="78.40" stroke="#ddd" stroke-dasharray="3,2"></line><line x1="202" y1="535.30" x2="202" y2="78.40" stroke="#ddd" stroke-dasharray="3,2"></line><line x1="295.4" y1="535.30" x2="295.4" y2="78.40" stroke="#ddd" stroke-dasharray="3,2"></line><line x1="388.8" y1="535.30" x2="388.8" y2="78.40" stroke="#ddd" stroke-dasharray="3,2"></line><line x1="482.3" y1="535.30" x2="482.3" y2="78.40" stroke="#ddd" stroke-dasharray="3,2"></line></g></g><g clip-path="url(#boundsClip-3)"><g class="HeightedLegend clickable"><g class="legendMark"><rect x="566.992" y="63.45" width="247.99200000000002" height="29.900000000000002" fill="#fff" opacity="0"></rect><rect x="566.992" y="77.15" width="10" height="2.5" fill="#34983f"></rect><text font-size="14.40" x="582.0" y="75.0" fill="#333"><tspan x="581.992" y="74.97000000000001">Health Insurance Coverage US, Any</tspan><tspan x="581.992" y="90.81000000000002">Plan</tspan></text></g><g class="legendMark"><rect x="566.992" y="183.75" width="268.00800000000004" height="29.900000000000002" fill="#fff" opacity="0"></rect><rect x="566.992" y="197.45" width="10" height="2.5" fill="#ca2628"></rect><text font-size="14.40" x="582.0" y="195.3" fill="#333"><tspan x="581.992" y="195.27">Health Insurance Coverage US, Private</tspan><tspan x="581.992" y="211.11">Plan</tspan></text></g><g class="legendMark"><rect x="566.992" y="334.25" width="253.60800000000003" height="29.900000000000002" fill="#fff" opacity="0"></rect><rect x="566.992" y="347.95" width="10" height="2.5" fill="#3360a9"></rect><text font-size="14.40" x="582.0" y="345.8" fill="#333"><tspan x="581.992" y="345.77">Health Insurance Coverage US, Govt</tspan><tspan x="581.992" y="361.60999999999996">Plan</tspan></text></g></g><g class="Lines"><rect x="53" y="78" width="504" height="457" fill="rgba(255,255,255,0)" opacity="0"></rect><g class="key-United-States_0"><path stroke="#3360a9" stroke-linecap="round" d="M53 417L71 417L90 417L109 410L127 406L146 404L165 401L183 399L202 401L221 403L239 409L258 411L277 410L295 409L314 406L333 404L352 400L370 396L389 396L408 398L426 394L445 387L464 379L482 376L501 371L520 369L538 359L557 349" fill="none" stroke-width="1.5"></path><g fill="#3360a9"><circle cx="53" cy="417" r="2"></circle><circle cx="71" cy="417" r="2"></circle><circle cx="90" cy="417" r="2"></circle><circle cx="109" cy="410" r="2"></circle><circle cx="127" cy="406" r="2"></circle><circle cx="146" cy="404" r="2"></circle><circle cx="165" cy="401" r="2"></circle><circle cx="183" cy="399" r="2"></circle><circle cx="202" cy="401" r="2"></circle><circle cx="221" cy="403" r="2"></circle><circle cx="239" cy="409" r="2"></circle><circle cx="258" cy="411" r="2"></circle><circle cx="277" cy="410" r="2"></circle><circle cx="295" cy="409" r="2"></circle><circle cx="314" cy="406" r="2"></circle><circle cx="333" cy="404" r="2"></circle><circle cx="352" cy="400" r="2"></circle><circle cx="370" cy="396" r="2"></circle><circle cx="389" cy="396" r="2"></circle><circle cx="408" cy="398" r="2"></circle><circle cx="426" cy="394" r="2"></circle><circle cx="445" cy="387" r="2"></circle><circle cx="464" cy="379" r="2"></circle><circle cx="482" cy="376" r="2"></circle><circle cx="501" cy="371" r="2"></circle><circle cx="520" cy="369" r="2"></circle><circle cx="538" cy="359" r="2"></circle><circle cx="557" cy="349" r="2"></circle></g></g><g class="key-United-States_1"><path stroke="#ca2628" stroke-linecap="round" d="M53 150L71 154L90 155L109 162L127 168L146 175L165 177L183 177L202 177L221 175L239 175L258 174L277 166L295 165L314 171L333 177L352 182L370 183L389 186L408 189L426 191L445 195L464 206L482 209L501 210L520 210L538 208L557 199" fill="none" stroke-width="1.5"></path><g fill="#ca2628"><circle cx="53" cy="150" r="2"></circle><circle cx="71" cy="154" r="2"></circle><circle cx="90" cy="155" r="2"></circle><circle cx="109" cy="162" r="2"></circle><circle cx="127" cy="168" r="2"></circle><circle cx="146" cy="175" r="2"></circle><circle cx="165" cy="177" r="2"></circle><circle cx="183" cy="177" r="2"></circle><circle cx="202" cy="177" r="2"></circle><circle cx="221" cy="175" r="2"></circle><circle cx="239" cy="175" r="2"></circle><circle cx="258" cy="174" r="2"></circle><circle cx="277" cy="166" r="2"></circle><circle cx="295" cy="165" r="2"></circle><circle cx="314" cy="171" r="2"></circle><circle cx="333" cy="177" r="2"></circle><circle cx="352" cy="182" r="2"></circle><circle cx="370" cy="183" r="2"></circle><circle cx="389" cy="186" r="2"></circle><circle cx="408" cy="189" r="2"></circle><circle cx="426" cy="191" r="2"></circle><circle cx="445" cy="195" r="2"></circle><circle cx="464" cy="206" r="2"></circle><circle cx="482" cy="209" r="2"></circle><circle cx="501" cy="210" r="2"></circle><circle cx="520" cy="210" r="2"></circle><circle cx="538" cy="208" r="2"></circle><circle cx="557" cy="199" r="2"></circle></g></g><g class="key-United-States_2"><path stroke="#34983f" stroke-linecap="round" d="M53 91L71 94L90 95L109 96L127 97L146 102L165 103L183 103L202 104L221 104L239 105L258 106L277 97L295 95L314 97L333 100L352 102L370 101L389 103L408 106L426 103L445 104L464 108L482 109L501 105L520 104L538 93L557 78" fill="none" stroke-width="1.5"></path><g fill="#34983f"><circle cx="53" cy="91" r="2"></circle><circle cx="71" cy="94" r="2"></circle><circle cx="90" cy="95" r="2"></circle><circle cx="109" cy="96" r="2"></circle><circle cx="127" cy="97" r="2"></circle><circle cx="146" cy="102" r="2"></circle><circle cx="165" cy="103" r="2"></circle><circle cx="183" cy="103" r="2"></circle><circle cx="202" cy="104" r="2"></circle><circle cx="221" cy="104" r="2"></circle><circle cx="239" cy="105" r="2"></circle><circle cx="258" cy="106" r="2"></circle><circle cx="277" cy="97" r="2"></circle><circle cx="295" cy="95" r="2"></circle><circle cx="314" cy="97" r="2"></circle><circle cx="333" cy="100" r="2"></circle><circle cx="352" cy="102" r="2"></circle><circle cx="370" cy="101" r="2"></circle><circle cx="389" cy="103" r="2"></circle><circle cx="408" cy="106" r="2"></circle><circle cx="426" cy="103" r="2"></circle><circle cx="445" cy="104" r="2"></circle><circle cx="464" cy="108" r="2"></circle><circle cx="482" cy="109" r="2"></circle><circle cx="501" cy="105" r="2"></circle><circle cx="520" cy="104" r="2"></circle><circle cx="538" cy="93" r="2"></circle><circle cx="557" cy="78" r="2"></circle></g></g></g></g></g><g style="fill: #777;" class="SourcesFooter"><g style="fill: #777;" class="clickable"><text font-size="12.60" x="15.0" y="581.6"><tspan x="15" y="581.58">Source: US Current Population Survey (2014)</tspan></text></g><text font-size="12.60" x="528.1" y="581.6"><tspan x="528.0640000000001" y="581.58"><a target='_blank' style='fill: #777;' href='https://ourworldindata.org/financing-healthcare/'>OurWorldInData.org/financing-healthcare/</a> • <a style="fill: #777;" href="http://creativecommons.org/licenses/by-sa/4.0/deed.en_US" target="_blank">CC BY-SA</a></tspan></text></g></g></svg>
